icons/arrow-small-left.svg

<svg xmlns="http://www.w3.org/2000/svg" width="24" height="24" viewBox="0 0 24 24">
  <path d="M12.363961,5.63603897 C12.724445,5.99652293 12.7521745,6.56375399 12.4471496,6.95604519 L12.363961,7.05025253 L8.414,10.9991458 L18,11 C18.5522847,11 19,11.4477153 19,12 C19,12.5128358 18.6139598,12.9355072 18.1166211,12.9932723 L18,13 L8.414,12.9991458 L12.363961,16.9497475 C12.7544853,17.3402718 12.7544853,17.9734367 12.363961,18.363961 C12.0034771,18.724445 11.436246,18.7521745 11.0439548,18.4471496 L10.9497475,18.363961 L5.29289322,12.7071068 L5.21968877,12.625449 C5.21739784,12.6225945 5.21512226,12.6197272 5.21286214,12.6168472 L5.29289322,12.7071068 C5.25482231,12.6690359 5.2204628,12.628659 5.1898147,12.5864257 C5.17541687,12.5664533 5.16150681,12.5456983 5.14837237,12.5244138 C5.13863517,12.5087703 5.12981337,12.4935488 5.12142608,12.4781534 C5.11185933,12.4604898 5.10247102,12.4419547 5.09365378,12.4230991 C5.08567905,12.4060985 5.07819642,12.3887956 5.07122549,12.371336 C5.06331574,12.3515792 5.05612249,12.3317977 5.04954668,12.3117364 C5.04472872,12.2968513 5.04009773,12.2814633 5.03584514,12.265993 C5.02983363,12.2444365 5.0246398,12.2227461 5.02016515,12.2007941 C5.01671819,12.1834538 5.01365592,12.1661068 5.01105328,12.1487043 C5.00806389,12.1291721 5.00568824,12.1091935 5.00391025,12.0890432 C5.00190536,12.0660447 5.00065719,12.0430382 5.00019915,12.0200189 C5.00006675,12.0134712 5,12.0067434 5,12 L5.00017973,11.9809819 C5.0006228,11.9575431 5.00188502,11.9341169 5.00396641,11.9107499 L5,12 C5,11.9493797 5.00376119,11.8996379 5.01101934,11.8510388 C5.01362808,11.834051 5.01670217,11.8166247 5.02024007,11.7992742 C5.0246398,11.7772539 5.02983363,11.7555635 5.03572097,11.7341604 C5.04017413,11.7182588 5.04489522,11.7025958 5.05000842,11.6870335 C5.0559003,11.6689468 5.06244532,11.6508514 5.06948879,11.6330072 C5.07731015,11.613165 5.08591191,11.5932325 5.09519221,11.5735404 C5.1040443,11.5549095 5.1131069,11.5371537 5.12267436,11.5197141 C5.12986112,11.5064305 5.13772719,11.4928304 5.14593987,11.4793822 C5.15891923,11.4583066 5.17252629,11.4377852 5.1868509,11.4178133 C5.19602294,11.4048869 5.20595004,11.3917355 5.21624472,11.3787805 C5.2404037,11.3484595 5.26587927,11.3199072 5.29289322,11.2928932 L10.9497475,5.63603897 C11.3402718,5.24551468 11.9734367,5.24551468 12.363961,5.63603897 Z"/>
</svg>

<svg xmlns="http://www.w3.org/2000/svg" viewBox="0 0 24 24">
  <path d="M12.36 5.64a1 1 0 0 1 .09 1.32l-.09.09L8.41 11H18a1 1 0 0 1 .12 2H8.4l3.95 3.95a1 1 0 0 1-1.32 1.5l-.09-.09-5.66-5.65-.07-.08v-.01l.07.09A1 1 0 0 1 5 12v-.02a1 1 0 0 1 0-.07V12a1 1 0 0 1 .3-.7l5.65-5.66a1 1 0 0 1 1.41 0z"/>
</svg>
